X: 15311
T: Girls Of Our Town, The
R: reel
M: 4/4
K: Gmajor
BA GE DE GA|B2 BA BE ~E2|BA GE DE GA|Bd Ad BG ~G2:|
Bd gd ed gd|Bd gd BA AG|Bd gd ed gd|Bd Ad BG ~G2|
Bd gd ed gd|Bd gd BA AG|Bd ef g3e|dB AB AG G2||

